Suru++-Ubuntu/apps/scalable/peek.svg

<svg width="256" height="256" version="1.1" viewBox="0 0 67.73 67.73" xmlns="http://www.w3.org/2000/svg" xmlns:xlink="http://www.w3.org/1999/xlink">
 <defs>
  <linearGradient id="linearGradient1108" x1="296" x2="296" y1="-212" y2="236" gradientUnits="userSpaceOnUse">
   <stop style="stop-color:#ffffff" offset="0"/>
   <stop style="stop-color:#ffffff;stop-opacity:.09803922" offset=".125"/>
   <stop style="stop-color:#000000;stop-opacity:.09803922" offset=".925"/>
   <stop style="stop-color:#000000;stop-opacity:.49803922" offset="1"/>
  </linearGradient>
  <clipPath id="clipPath1082-3-361">
   <path d="M 361.9375,-212 C 507.2348,-212 528,-191.28677 528,-46.125 V 70.125 C 528,215.28618 507.2348,236 361.9375,236 H 214.0625 C 68.7652,236 48,215.28618 48,70.125 V -46.125 C 48,-191.28677 68.7652,-212 214.0625,-212 Z" style="fill:#8c59d9"/>
  </clipPath>
  <filter id="filter4569" x="-.01" y="-.01" width="1.023" height="1.025" style="color-interpolation-filters:sRGB">
   <feGaussianBlur stdDeviation="1.16"/>
  </filter>
  <filter id="filter939" x="-.02" y="-.03" width="1.046" height="1.05" style="color-interpolation-filters:sRGB">
   <feGaussianBlur stdDeviation="2.32"/>
  </filter>
 </defs>
 <g transform="translate(0,-229.26666)">
  <path transform="matrix(.26970779 0 0 .26970779 -1.9098094e-8 231.46531)" d="m162.53675 5.5680001c72.64865 0 83.03125 10.356615 83.03125 82.937505v58.125005c0 72.58059-10.3826 82.9375-83.03125 82.9375h-73.937496c-72.648654 0-83.031254-10.35691-83.031254-82.9375v-58.125005c0-72.58089 10.3826-82.937505 83.031254-82.937505z" style="filter:url(#filter939);opacity:.2"/>
  <path d="m43.837429 232.42763c19.593907 0 22.394176 2.79326 22.394176 22.36889v15.67677c0 19.57555-2.800269 22.36889-22.394176 22.36889h-19.941519c-19.593909 0-22.394177-2.79334-22.394177-22.36889v-15.67677c0-19.57563 2.8002682-22.36889 22.394177-22.36889z" style="fill:none;opacity:.1;stroke-linecap:round;stroke-linejoin:round;stroke-width:1.0788311;stroke:#000000"/>
  <path transform="matrix(.26970779 0 0 .26970779 -1.9098094e-8 231.46531)" d="m162.53675 3.5680001c72.64865 0 83.03125 10.356615 83.03125 82.937505v58.125005c0 72.58059-10.3826 82.9375-83.03125 82.9375h-73.937496c-72.648654 0-83.031254-10.35691-83.031254-82.9375v-58.125005c0-72.58089 10.3826-82.937505 83.031254-82.937505z" style="filter:url(#filter4569);opacity:.1"/>
  <path d="m43.849167 232.42763c19.593907 0 22.394175 2.79326 22.394175 22.36889v15.67677c0 19.57555-2.800268 22.36889-22.394175 22.36889h-19.94152c-19.593907 0-22.394175-2.79334-22.394175-22.36889v-15.67677c0-19.57563 2.8002682-22.36889 22.394175-22.36889z" style="fill:#f57900"/>
  <path d="m23.895907 292.84218c-19.593907 0-22.394176-2.79326-22.394176-22.36889v-7.83838h64.729871v7.83838c0 19.57563-2.800268 22.36889-22.394175 22.36889z" style="fill:#ffffff;opacity:.1"/>
  <path d="m33.866666 232.42763v60.41455h9.970761c19.593907 0 22.394175-2.79334 22.394175-22.36889v-15.67677c0-19.57563-2.800268-22.36889-22.394175-22.36889z" style="fill:#ffffff;opacity:.1"/>
  <path transform="matrix(.26458333 0 0 .26458333 0 229.26666)" d="m90.359375 11.947266c-3.388943 0-6.065332 0.15041-9.115234 0.21875-3.980489 0.089191-8.238133 0.116992-11.896485 0.285156-0.258886 0.115779-0.565496 0.217222-0.820312 0.333984l-4.214844 1.931641-0.990234 4.951172-20.009766 100.06055-7.583984 37.82226-13.927735 69.4668c1.086703 0.96127 2.147227 1.94488 3.378907 2.77734 1.79005 1.20986 3.737398 2.28848 5.855468 3.24805s4.406999 1.80008 6.878906 2.53515c2.471911 0.73511 5.12694 1.3659 7.978516 1.90235s5.899184 0.98013 9.15625 1.34375c3.257066 0.36361 6.723729 0.64669 10.41211 0.86328 1.422922 0.0836 3.312953 0.0509 4.802734 0.11523 1.77-8.60907 2.907476-13.9582 6.210937-30.52929l7.697266-38.60938 1.71875-8.62304 9.476563-0.00782c13.026652-0.01 31.131932-0.86887 39.416012-1.87109 30.13112-3.64532 51.67038-13.51445 69.57618-31.87891 9.73125-9.98056 16.5277-20.66203 22.0039-34.582028 2.77484-7.053415 5.02405-16.475437 6.03516-24.556641a81.5756 118.71002 75.38042 0 0-0.19141-4.576172 81.5756 118.71002 75.38042 0 0-1.50586-8.023437 81.5756 118.71002 75.38042 0 0-1.76172-5.503906 81.5756 118.71002 75.38042 0 0-3.45117-7.462891 81.5756 118.71002 75.38042 0 0-4.54687-7.03125 81.5756 118.71002 75.38042 0 0-5.59571-6.533203 81.5756 118.71002 75.38042 0 0-6.58984-5.964844 81.5756 118.71002 75.38042 0 0-2.21289-1.572266c-8.94763-6.036483-22.15688-11.384022-29.61524-10.259765-3.77159-0.07613-7.03579-0.269531-11.19921-0.269531h-75.369145zm19.640625 29.052734h17.68555c17.43805 0 27.59155 0.662025 32.9414 2.148438 3.74309 1.039971 8.15111 3.749346 10.7793 6.625 4.33027 4.738012 6.11047 11.122706 5.625 20.171874-0.49617 9.248769-3.48364 18.393428-9.06836 27.751954-10.47309 17.550124-24.21265 26.008824-47.66211 29.341794v-0.00195c-3.3967 0.48295-9.65099 0.7776-16.5625 0.78516l-11.103514 0.01171 8.681644-43.417964 8.68359-43.416016z" style="fill:#fffcfc"/>
  <path transform="matrix(.1348539 0 0 .1348539 -4.9712559 261.01666)" d="M 361.9375,-212 C 507.2348,-212 528,-191.28677 528,-46.125 V 70.125 C 528,215.28618 507.2348,236 361.9375,236 H 214.0625 C 68.7652,236 48,215.28618 48,70.125 V -46.125 C 48,-191.28677 68.7652,-212 214.0625,-212 Z" clip-path="url(#clipPath1082-3-361)" style="fill:none;opacity:.4;stroke-linecap:round;stroke-linejoin:round;stroke-width:8;stroke:url(#linearGradient1108)"/>
 </g>
</svg>

<svg xmlns="http://www.w3.org/2000/svg" xmlns:xlink="http://www.w3.org/1999/xlink" width="256" height="256" version="1.1" viewBox="0 0 67.73 67.73">
 <defs>
  <linearGradient id="linearGradient1108" x1="296" x2="296" y1="-212" y2="236" gradientUnits="userSpaceOnUse" xlink:href="#linearGradient1013"/>
  <linearGradient id="linearGradient1013">
   <stop offset="0" style="stop-color:#ffffff"/>
   <stop style="stop-color:#ffffff;stop-opacity:0.09803922" offset=".125"/>
   <stop style="stop-color:#000000;stop-opacity:0.09803922" offset=".925"/>
   <stop offset="1" style="stop-color:#000000;stop-opacity:0.49803922"/>
  </linearGradient>
  <clipPath id="clipPath1082-3-361" clipPathUnits="userSpaceOnUse">
   <path d="M 361.9375,-212 C 507.2348,-212 528,-191.28677 528,-46.125 V 70.125 C 528,215.28618 507.2348,236 361.9375,236 H 214.0625 C 68.7652,236 48,215.28618 48,70.125 V -46.125 C 48,-191.28677 68.7652,-212 214.0625,-212 Z" style="fill:#8c59d9"/>
  </clipPath>
  <filter style="color-interpolation-filters:sRGB" id="filter4569" width="1.023" height="1.025" x="-.01" y="-.01">
   <feGaussianBlur stdDeviation="1.16"/>
  </filter>
  <filter style="color-interpolation-filters:sRGB" id="filter939" width="1.046" height="1.05" x="-.02" y="-.03">
   <feGaussianBlur stdDeviation="2.32"/>
  </filter>
 </defs>
 <g transform="translate(0,-229.26666)">
  <path style="opacity:0.2;filter:url(#filter939)" d="m 162.53675,5.5680001 c 72.64865,0 83.03125,10.3566149 83.03125,82.9375049 v 58.125005 c 0,72.58059 -10.3826,82.9375 -83.03125,82.9375 H 88.599254 C 15.9506,229.56801 5.568,219.2111 5.568,146.63051 V 88.505505 c 0,-72.58089 10.3826,-82.9375049 83.031254,-82.9375049 z" transform="matrix(0.26970779,0,0,0.26970779,-1.9098094e-8,231.46531)"/>
  <path d="m 43.837429,232.42763 c 19.593907,0 22.394176,2.79326 22.394176,22.36889 v 15.67677 c 0,19.57555 -2.800269,22.36889 -22.394176,22.36889 H 23.89591 c -19.5939088,0 -22.394177,-2.79334 -22.394177,-22.36889 v -15.67677 c 0,-19.57563 2.8002682,-22.36889 22.394177,-22.36889 z" style="opacity:0.1;fill:none;stroke:#000000;stroke-width:1.07883108;stroke-linecap:round;stroke-linejoin:round"/>
  <path d="m 162.53675,3.5680001 c 72.64865,0 83.03125,10.3566149 83.03125,82.9375049 v 58.125005 c 0,72.58059 -10.3826,82.9375 -83.03125,82.9375 H 88.599254 C 15.9506,227.56801 5.568,217.2111 5.568,144.63051 V 86.505505 c 0,-72.58089 10.3826,-82.9375049 83.031254,-82.9375049 z" transform="matrix(0.26970779,0,0,0.26970779,-1.9098094e-8,231.46531)" style="opacity:0.1;filter:url(#filter4569)"/>
  <path style="fill:#f57900" d="m 43.849167,232.42763 c 19.593907,0 22.394175,2.79326 22.394175,22.36889 v 15.67677 c 0,19.57555 -2.800268,22.36889 -22.394175,22.36889 h -19.94152 c -19.5939069,0 -22.3941751,-2.79334 -22.3941751,-22.36889 v -15.67677 c 0,-19.57563 2.8002682,-22.36889 22.3941751,-22.36889 z"/>
  <path style="opacity:0.1;fill:#ffffff" d="m 23.895907,292.84218 c -19.5939074,0 -22.3941756,-2.79326 -22.3941756,-22.36889 v -7.83838 H 66.231602 v 7.83838 c 0,19.57563 -2.800268,22.36889 -22.394175,22.36889 z"/>
  <path style="opacity:0.1;fill:#ffffff" d="m 33.866666,232.42763 v 60.41455 h 9.970761 c 19.593907,0 22.394175,-2.79334 22.394175,-22.36889 v -15.67677 c 0,-19.57563 -2.800268,-22.36889 -22.394175,-22.36889 z"/>
  <path style="fill:#fffcfc" d="M 90.359375 11.947266 C 86.970432 11.947266 84.294043 12.097676 81.244141 12.166016 C 77.263652 12.255207 73.006008 12.283008 69.347656 12.451172 C 69.08877 12.566951 68.78216 12.668394 68.527344 12.785156 L 64.3125 14.716797 L 63.322266 19.667969 L 43.3125 119.72852 L 35.728516 157.55078 L 21.800781 227.01758 C 22.887484 227.97885 23.948008 228.96246 25.179688 229.79492 C 26.969738 231.00478 28.917086 232.0834 31.035156 233.04297 C 33.153226 234.00254 35.442155 234.84305 37.914062 235.57812 C 40.385973 236.31323 43.041002 236.94402 45.892578 237.48047 C 48.744154 238.01692 51.791762 238.4606 55.048828 238.82422 C 58.305894 239.18783 61.772557 239.47091 65.460938 239.6875 C 66.88386 239.7711 68.773891 239.7384 70.263672 239.80273 C 72.033672 231.19366 73.171148 225.84453 76.474609 209.27344 L 84.171875 170.66406 L 85.890625 162.04102 L 95.367188 162.0332 C 108.39384 162.0232 126.49912 161.16433 134.7832 160.16211 C 164.91432 156.51679 186.45358 146.64766 204.35938 128.2832 C 214.09063 118.30264 220.88708 107.62117 226.36328 93.701172 C 229.13812 86.647757 231.38733 77.225735 232.39844 69.144531 A 81.5756 118.71002 75.38042 0 0 232.20703 64.568359 A 81.5756 118.71002 75.38042 0 0 230.70117 56.544922 A 81.5756 118.71002 75.38042 0 0 228.93945 51.041016 A 81.5756 118.71002 75.38042 0 0 225.48828 43.578125 A 81.5756 118.71002 75.38042 0 0 220.94141 36.546875 A 81.5756 118.71002 75.38042 0 0 215.3457 30.013672 A 81.5756 118.71002 75.38042 0 0 208.75586 24.048828 A 81.5756 118.71002 75.38042 0 0 206.54297 22.476562 C 197.59534 16.440079 184.38609 11.09254 176.92773 12.216797 C 173.15614 12.140667 169.89194 11.947266 165.72852 11.947266 L 90.359375 11.947266 z M 110 41 L 127.68555 41 C 145.1236 41 155.2771 41.662025 160.62695 43.148438 C 164.37004 44.188409 168.77806 46.897784 171.40625 49.773438 C 175.73652 54.51145 177.51672 60.896144 177.03125 69.945312 C 176.53508 79.194081 173.54761 88.33874 167.96289 97.697266 C 157.4898 115.24739 143.75024 123.70609 120.30078 127.03906 L 120.30078 127.03711 C 116.90408 127.52006 110.64979 127.81471 103.73828 127.82227 L 92.634766 127.83398 L 101.31641 84.416016 L 110 41 z" transform="matrix(0.26458333,0,0,0.26458333,0,229.26666)"/>
  <path d="M 361.9375,-212 C 507.2348,-212 528,-191.28677 528,-46.125 V 70.125 C 528,215.28618 507.2348,236 361.9375,236 H 214.0625 C 68.7652,236 48,215.28618 48,70.125 V -46.125 C 48,-191.28677 68.7652,-212 214.0625,-212 Z" clip-path="url(#clipPath1082-3-361)" transform="matrix(0.1348539,0,0,0.1348539,-4.9712559,261.01666)" style="opacity:0.4;fill:none;stroke:url(#linearGradient1108);stroke-width:8;stroke-linecap:round;stroke-linejoin:round"/>
 </g>
</svg>
